X:153
T:The Merry Blacksmith
T:Paddy on the Railroad
R:reel
O:Irish
L:1/8
M:C
K:D
A2|"D"d2 dA BAFA|ABdA BAFA|"D"ABde "Bm"f2 ed|"Em"Beed "A7"egfe|
"D"dcdA BAFA|ABdA BAFA|"D"ABde "Em"fgec|"A7"dBAF "D"D2:|
|:fg|"D"a2ag f2fe|d2 dA BAFA|"D"ABde "Bm"f2 ed|"Em"Beed "A7"eage|
"D"abag fgfe|d2 dA BAFA|"D"ABde "Em"fgec|"A7"dBAF "D"D2:|]
